X: 42697
T: Whistler Of Rosslea, The
R: reel
M: 4/4
K: Fdorian
CDEF G2 FD|EGFD EC3|B,CDE F2 EF|GEFD ECG,B,|
CDEC DEFD|G=ABG cBGF|EGGE FDB,D|EGDB, C3 G,|
CDEF G2 FD|EGFD EGC2|B,CDE FDEF|GEFD ECDB,|
CDEC DEFD|G=ABG cBGF|EGGE FDB,D|ECDB, C3 B||
c2 Gc EcGc|Gced cGG=A|B2 FB DBFB|B=AGF EDCB,|
C2Cc cBGF|EFG=A B2 GB|cBGF EGGE|FDB,D C3 B|
c2 Gc EcGc|Gced cGG=A|B=ABc dBcA|B=AGF EDCB,|
C2Cc cBGF|EFG=A B2 GB|cBGF EGGE|FDB,D C4||

